!!!COM: Bach, Johann Sebastian
!!!CDT: 1685/3//-1750/7/28/
!!!OTL@@DE: Herr Christ, der ein'ge Gott's Sohn
!!!AGN: 4-Part Chorale
!!!SCT: BH 101
!!!SCT: BWV 164
**harm	**root	**kern	**kern	**kern	**kern
*	*Iorgan	*Iorgan	*Iorgan	*Iorgan	*Iorgan
!	!	!bass	!tenor	!alto	!soprno
*M4/4	*M4/4	*M4/4	*M4/4	*M4/4	*M4/4
*met(c)	*met(c)	*met(c)	*met(c)	*met(c)	*met(c)
*MM60	*MM60	*MM60	*MM60	*MM60	*MM60
*k[f#c#g#]	*k[f#c#g#]	*k[f#c#g#]	*k[f#c#g#]	*k[f#c#g#]	*k[f#c#g#]
*A:	*A:	*A:	*A:	*A:	*A:
*>[A,A,B]	*>[A,A,B]	*>[A,A,B]	*>[A,A,B]	*>[A,A,B]	*>[A,A,B]
*>A	*>A	*>A	*>A	*>A	*>A
I	4BB-	4A	4c#	4e	4a
=1	=1	=1	=1	=1	=1
IV	4EE-	4D	4d	8f#	8a
.	.	.	.	8g#	8b
I	4BB-	4AA	4e	4a	4cc#
V	4FF	4E	8e	4g#	4b
.	.	.	8d	.	.
vi	4GG	4F#	4c#	4f#	4a
=2	=2	=2	=2	=2	=2
viio7b	4AA	4BB	4d	4f#	2g#
V/vi	4DD	4C#	8c#	4e#	.
.	.	.	8B	.	.
IV;	4EE-;	4D;	4A;	4f#;	4f#;
vi	4GG	4F#	4A	4f#	4cc#
=3	=3	=3	=3	=3	=3
ii7	4CC	4BB	4A	4f#	4dd
V	4FF	8E	4G#	4e	4b
.	.	8D	.	.	.
Ib	4BB-	8C#	4A	4e	4cc#
.	.	8D	.	.	.
V	4FF	4E	8A	4e	4b
.	.	.	8G#	.	.
=4	=4	=4	=4	=4	=4
I;	2.BB-;	2.AA;	2.c#;	2.e;	2.a;
*>B	*>B	*>B	*>B	*>B	*>B
=:|!	=:|!	=:|!	=:|!	=:|!	=:|!
I	4BB-	4AA	8c#	4e	8a
.	.	.	8d	.	8b
!!linebreak: 2
=5	=5	=5	=5	=5	=5
I	4BB-	8A	4e	4a	4cc#
.	.	8G#	.	.	.
vi	4GG	8F#	4f#	8a	4cc#
.	.	8E	.	8g#	.
IV	4EE-	8D	8f#	4f#	4dd
.	.	8C#	8e	.	.
ii	4CC	8BB	8d	4f#	4dd
.	.	8AA	8c#	.	.
=6	=6	=6	=6	=6	=6
Vb	4FF	4GG#	4B	2e	4ee
I	4BB-	4AA	4A	.	8dd
.	.	.	.	.	8cc#
V;	4FF;	4EE;	4G#;	4e;	4b;
Vb	4FF	4GG#	4B	4e	4ee
=7	=7	=7	=7	=7	=7
I	4BB-	8AA	4A	4e	4cc#
.	.	8BB	.	.	.
Ib	4BB-	8C#	4A	4e	4cc#
.	.	8D	.	.	.
V	8FF	8E	4G#	8e	4b
viioD7/vi	8FF#	8E#	.	8d	.
vi	8GG	8F#	8G#	4c#	4a
vib	8GG	8AA	8F#	.	.
=8	=8	=8	=8	=8	=8
viio7b	4AA	8BB	4F#	8d	2g#
.	.	8GG#	.	8B	.
V/vi	4DD	4C#	4E#	4c#	.
vi;	4GG;	4FF#;	4A;	4c#;	4f#;
V/ii	4GG	4F#	4A#	4f#	4cc#
=9	=9	=9	=9	=9	=9
ii	4CC	8B	8B	4f#	4dd
.	.	8A	8c#	.	.
V7b	4FF	8G#	8d	4e	4b
.	.	8E	8G#	.	.
I	4BB-	8A	4Ay	8e	4cc#
.	.	8D	.	8f#	.
V	4FF	8E	8e	4g#	4b
.	.	8EE	8d	.	.
=10	=10	=10	=10	=10	=10
I;	2.BB-;	2.AA;	2.c#;	2.e;	2.a;
==	==	==	==	==	==
*-	*-	*-	*-	*-	*-
!!chor2scor: -l 2 -s 0.6 -o %b.pmx
!!!YEC: Copyright 1994, David Huron
!!!YEC: Changes/Additions 2001 by Craig Stuart Sapp
!!!YEN: United States of America
!!!SMA: 371 Bach Chorales, edited by Ludwig Erk, C.F. Peters
!!!PDT: 1850, 1865
!!!ONB: Harmony and Root analysis done manually
